src/payment-american-express.svg

<svg xmlns="http://www.w3.org/2000/svg" class="dibsvg-svg dibsvg-american-express" viewBox="0 0 500 312">
    <rect width="500" height="312" fill="#F8F8F8" class="dibsvg-color-holder"/>
    <g fill="#2E77BC" class="dibsvg-color-letters" transform="translate(7.028 73.293)">
        <path d="M430.17905 123.410308C433.3166 126.547858 434.36245 129.685408 434.36245 134.914659 434.36245 147.464859 427.041499 152.69411 413.445448 152.69411L387.299197 152.69411 387.299197 141.189759 413.445448 141.189759C415.537149 141.189759 417.628849 141.189759 418.674699 140.143909 419.720549 139.098059 420.766399 138.052209 420.766399 137.006359 420.766399 134.914659 419.720549 133.868809 418.674699 132.822959 417.628849 131.777108 416.582999 131.777108 413.445448 131.777108 400.895248 131.777108 385.207497 131.777108 385.207497 113.997657 385.207497 105.630857 390.436747 97.2640562 405.078648 97.2640562L432.27075 97.2640562 432.27075 108.768407 407.170348 108.768407C405.078648 108.768407 402.986948 108.768407 401.941098 109.814257 399.849398 110.860107 399.849398 112.951807 399.849398 113.997657 399.849398 116.089357 400.895248 117.135207 402.986948 118.181058 404.032798 118.181058 406.124498 119.226908 408.216198 119.226908L415.537149 119.226908C422.858099 119.226908 427.041499 120.272758 430.17905 123.410308L430.17905 123.410308 430.17905 123.410308zM482.471553 123.410308C485.609103 126.547858 486.654953 129.685408 486.654953 134.914659 486.654953 147.464859 479.334003 152.69411 465.737952 152.69411L439.5917 152.69411 439.5917 141.189759 465.737952 141.189759C467.829652 141.189759 469.921352 141.189759 470.967202 140.143909 472.013052 139.098059 473.058902 138.052209 473.058902 137.006359 473.058902 134.914659 472.013052 133.868809 470.967202 132.822959 469.921352 131.777108 468.875502 131.777108 465.737952 131.777108 453.187751 131.777108 437.5 131.777108 437.5 113.997657 437.5 105.630857 442.72925 97.2640562 457.371151 97.2640562L483.517403 97.2640562 483.517403 108.768407 458.417001 108.768407C456.325301 108.768407 454.233601 108.768407 453.187751 109.814257 452.141901 110.860107 451.096051 111.905957 451.096051 113.997657 451.096051 116.089357 452.141901 117.135207 454.233601 118.181058 455.279451 118.181058 457.371151 119.226908 459.462851 119.226908L466.783802 119.226908C474.104752 119.226908 479.334003 120.272758 482.471553 123.410308L482.471553 123.410308 482.471553 123.410308z"/>
        <polygon points="332.915 97.264 378.932 97.264 378.932 108.768 346.511 108.768 346.511 119.227 377.887 119.227 377.887 130.731 346.511 130.731 346.511 141.19 378.932 141.19 378.932 153.74 332.915 153.74"/>
        <path d="M316.181392 127.593708C319.318942 126.547858 325.594043 121.318608 325.594043 112.951807 325.594043 106.676707 322.456493 103.539157 318.273092 100.401606 314.089692 98.3099063 308.860442 97.2640562 301.539491 97.2640562L270.163989 97.2640562 270.163989 153.73996 284.80589 153.73996 284.80589 132.822959 299.447791 132.822959C304.677041 132.822959 307.814592 132.822959 309.906292 134.914659 311.997992 137.006359 311.997992 142.235609 311.997992 145.373159L311.997992 152.69411 325.594043 152.69411 325.594043 141.189759C325.594043 135.960509 325.594043 133.868809 323.502343 130.731258 321.410643 130.731258 319.318942 128.639558 316.181392 127.593708L316.181392 127.593708zM307.814592 120.272758C305.722892 121.318608 303.631191 121.318608 301.539491 121.318608L284.80589 121.318608 284.80589 108.768407 301.539491 108.768407C303.631191 108.768407 306.768742 108.768407 307.814592 109.814257 309.906292 110.860107 310.952142 112.951807 310.952142 115.043507 310.952142 117.135207 309.906292 119.226908 307.814592 120.272758L307.814592 120.272758zM241.926037 97.2640562L198.000335 97.2640562 180.220884 116.089357 163.487282 97.2640562 109.103079 97.2640562 109.103079 153.73996 163.487282 153.73996 181.266734 134.914659 198.000335 153.73996 224.146586 153.73996 224.146586 134.914659 240.880187 134.914659C252.384538 134.914659 264.934739 131.777108 264.934739 116.089357 264.934739 100.401606 252.384538 97.2640562 241.926037 97.2640562L241.926037 97.2640562zM156.166332 141.189759L122.69913 141.189759 122.69913 129.685408 153.028782 129.685408 153.028782 118.181058 122.69913 118.181058 122.69913 107.722557 157.212182 107.722557 171.854083 124.456158 156.166332 141.189759 156.166332 141.189759zM210.550535 148.51071L189.633534 125.502008 210.550535 103.539157 210.550535 148.51071 210.550535 148.51071zM241.926037 123.410308L224.146586 123.410308 224.146586 108.768407 241.926037 108.768407C247.155288 108.768407 250.292838 110.860107 250.292838 116.089357 250.292838 120.272758 247.155288 123.410308 241.926037 123.410308L241.926037 123.410308zM450.050201 56.4759036L431.2249 56.4759036 405.078648 14.6419009 405.078648 56.4759036 377.886546 56.4759036 372.657296 43.9257028 344.419344 43.9257028 339.190094 56.4759036 323.502343 56.4759036C317.227242 56.4759036 308.860442 55.4300535 303.631191 50.2008032 298.401941 46.0174029 295.264391 39.7423025 295.264391 29.2838019 295.264391 20.9170013 296.310241 13.5960509 302.585341 7.32095047 306.768742 3.1375502 314.089692 1.04585007 323.502343 1.04585007L337.098394 1.04585007 337.098394 12.5502008 324.548193 12.5502008C319.318942 12.5502008 317.227242 13.5960509 314.089692 15.687751 310.952142 18.8253012 309.906292 23.0087015 309.906292 29.2838019 309.906292 35.5589023 310.952142 39.7423025 314.089692 42.8798527 316.181392 44.9715529 320.364793 46.0174029 323.502343 46.0174029L329.777443 46.0174029 347.556894 1.04585007 368.473896 1.04585007 391.482597 54.3842035 391.482597 1.04585007 412.399598 1.04585007 436.45415 39.7423025 436.45415 1.04585007 450.050201 1.04585007 450.050201 56.4759036 450.050201 56.4759036zM366.382195 32.4213521L356.969545 10.4585007 347.556894 32.4213521 366.382195 32.4213521 366.382195 32.4213521z"/>
        <polygon points="275.393 1.046 288.989 1.046 288.989 56.476 275.393 56.476"/>
        <path d="M257.613788,30.3296519 C260.751339,29.2838019 267.026439,24.0545515 267.026439,15.687751 C267.026439,9.4126506 264.934739,6.2751004 259.705489,3.1375502 C255.522088,1.04585007 250.292838,3.90798505e-14 242.971888,3.90798505e-14 L211.596386,3.90798505e-14 L211.596386,56.4759036 L225.192436,56.4759036 L225.192436,35.5589023 L239.834337,35.5589023 C245.063588,35.5589023 248.201138,35.5589023 249.246988,37.6506024 C251.338688,40.7881526 251.338688,44.9715529 251.338688,48.1091031 L251.338688,55.4300535 L264.934739,55.4300535 L264.934739,43.9257028 C264.934739,38.6964525 264.934739,36.6047523 262.843039,33.4672021 C262.843039,33.4672021 260.751339,32.4213521 257.613788,30.3296519 L257.613788,30.3296519 Z M249.246988,24.0545515 C247.155288,25.1004016 245.063588,25.1004016 242.971888,25.1004016 L226.238286,25.1004016 L226.238286,12.5502008 L242.971888,12.5502008 C245.063588,12.5502008 248.201138,12.5502008 249.246988,13.5960509 C251.338688,14.6419009 252.384538,15.687751 252.384538,18.8253012 C252.384538,20.9170013 251.338688,23.0087015 249.246988,24.0545515 L249.246988,24.0545515 Z"/>
        <polygon points="203.23 56.476 157.212 56.476 157.212 1.046 203.23 1.046 203.23 12.55 170.808 12.55 170.808 23.009 202.184 23.009 202.184 34.513 170.808 34.513 170.808 44.972 203.23 44.972"/>
        <path d="M147.799531,56.4759036 L134.203481,56.4759036 L134.203481,12.5502008 L114.332329,56.4759036 L102.827979,56.4759036 L81.9109772,12.5502008 L81.9109772,56.4759036 L54.7188755,56.4759036 L49.4896252,43.9257028 L21.2516734,43.9257028 L16.022423,56.4759036 L0.334672021,56.4759036 L24.3892236,3.90798505e-14 L44.2603748,3.90798505e-14 L67.2690763,53.3383534 L67.2690763,1.04585007 L89.2319277,1.04585007 L107.011379,38.6964525 L123.74498,1.04585007 L146.753681,1.04585007 L147.799531,56.4759036 L147.799531,56.4759036 L147.799531,56.4759036 Z M44.2603748,32.4213521 L34.8477242,10.4585007 L25.4350736,32.4213521 L44.2603748,32.4213521 L44.2603748,32.4213521 Z"/>
    </g>
</svg>

<svg xmlns="http://www.w3.org/2000/svg" class="dibsvg-svg dibsvg-american-express" viewBox="0 0 500 312">
    <rect width="500" height="312" fill="#F8F8F8" class="dibsvg-color-holder"/>
    <g fill="#2E77BC" class="dibsvg-color-letters" transform="translate(7.028 73.293)">
        <path d="M430.18 123.41c3.137 3.138 4.182 6.275 4.182 11.505 0 12.55-7.32 17.78-20.917 17.78H387.3V141.19h26.146c2.092 0 4.184 0 5.23-1.046 1.046-1.046 2.091-2.092 2.091-3.138 0-2.091-1.045-3.137-2.091-4.183-1.046-1.046-2.092-1.046-5.23-1.046-12.55 0-28.238 0-28.238-17.78 0-8.366 5.23-16.733 19.872-16.733h27.192v11.504h-25.1c-2.092 0-4.184 0-5.23 1.046-2.092 1.046-2.092 3.138-2.092 4.184 0 2.091 1.046 3.137 3.138 4.183 1.046 0 3.137 1.046 5.23 1.046h7.32c7.321 0 11.504 1.046 14.642 4.183zm52.292 0c3.137 3.138 4.183 6.275 4.183 11.505 0 12.55-7.321 17.78-20.917 17.78h-26.146V141.19h26.146c2.092 0 4.183 0 5.23-1.046 1.045-1.046 2.09-2.092 2.09-3.138 0-2.091-1.045-3.137-2.09-4.183-1.047-1.046-2.092-1.046-5.23-1.046-12.55 0-28.238 0-28.238-17.78 0-8.366 5.23-16.733 19.871-16.733h26.146v11.504h-25.1c-2.092 0-4.183 0-5.23 1.046-1.045 1.046-2.09 2.092-2.09 4.184 0 2.091 1.045 3.137 3.137 4.183 1.045 0 3.137 1.046 5.229 1.046h7.32c7.322 0 12.551 1.046 15.689 4.183z"/>
        <polygon points="332.915 97.264 378.932 97.264 378.932 108.768 346.511 108.768 346.511 119.227 377.887 119.227 377.887 130.731 346.511 130.731 346.511 141.19 378.932 141.19 378.932 153.74 332.915 153.74"/>
        <path d="M316.181 127.594c3.138-1.046 9.413-6.275 9.413-14.642 0-6.275-3.138-9.413-7.32-12.55-4.184-2.092-9.414-3.138-16.735-3.138h-31.375v56.476h14.642v-20.917h14.642c5.229 0 8.367 0 10.458 2.092 2.092 2.091 2.092 7.32 2.092 10.458v7.321h13.596V141.19c0-5.23 0-7.321-2.092-10.459-2.091 0-4.183-2.091-7.32-3.137zm-8.366-7.321c-2.092 1.046-4.184 1.046-6.276 1.046h-16.733v-12.55h16.733c2.092 0 5.23 0 6.276 1.045 2.091 1.046 3.137 3.138 3.137 5.23 0 2.091-1.046 4.183-3.137 5.229zm-65.889-23.009H198l-17.78 18.825-16.733-18.825h-54.384v56.476h54.384l17.78-18.825L198 153.74h26.147v-18.825h16.733c11.505 0 24.055-3.138 24.055-18.826 0-15.687-12.55-18.825-23.009-18.825zm-85.76 43.926H122.7v-11.505h30.33v-11.504H122.7v-10.458h34.513l14.642 16.733-15.688 16.734zm54.385 7.32l-20.917-23.008 20.917-21.963v44.972zm31.375-25.1h-17.78v-14.642h17.78c5.23 0 8.367 2.092 8.367 7.321 0 4.184-3.138 7.321-8.367 7.321zM450.05 56.476h-18.825l-26.146-41.834v41.834h-27.192l-5.23-12.55H344.42l-5.229 12.55h-15.688c-6.275 0-14.642-1.046-19.87-6.275-5.23-4.184-8.368-10.459-8.368-20.917 0-8.367 1.046-15.688 7.321-21.963 4.184-4.183 11.505-6.275 20.917-6.275h13.596V12.55h-12.55c-5.23 0-7.32 1.046-10.458 3.138-3.138 3.137-4.184 7.32-4.184 13.596 0 6.275 1.046 10.458 4.184 13.596 2.091 2.092 6.275 3.137 9.412 3.137h6.275l17.78-44.971h20.917l23.009 53.338V1.046H412.4l24.054 38.696V1.046h13.596v55.43zM366.382 32.42l-9.412-21.96-9.413 21.962h18.825z"/>
        <polygon points="275.393 1.046 288.989 1.046 288.989 56.476 275.393 56.476"/>
        <path d="M257.614 30.33c3.137-1.046 9.412-6.275 9.412-14.642 0-6.275-2.091-9.413-7.32-12.55C255.521 1.046 250.292 0 242.971 0h-31.376v56.476h13.596V35.559h14.642c5.23 0 8.367 0 9.413 2.092 2.092 3.137 2.092 7.32 2.092 10.458v7.321h13.596V43.926c0-5.23 0-7.321-2.092-10.459 0 0-2.092-1.046-5.23-3.137zm-8.367-6.275c-2.092 1.045-4.183 1.045-6.275 1.045h-16.734V12.55h16.734c2.092 0 5.23 0 6.275 1.046 2.092 1.046 3.138 2.092 3.138 5.23 0 2.091-1.046 4.183-3.138 5.229z"/>
        <polygon points="203.23 56.476 157.212 56.476 157.212 1.046 203.23 1.046 203.23 12.55 170.808 12.55 170.808 23.009 202.184 23.009 202.184 34.513 170.808 34.513 170.808 44.972 203.23 44.972"/>
        <path d="M147.8 56.476h-13.597V12.55l-19.87 43.926h-11.505L81.911 12.55v43.926H54.719l-5.23-12.55H21.253l-5.23 12.55H.335L24.389 0H44.26l23.01 53.338V1.046h21.962l17.78 37.65 16.733-37.65h23.009l1.046 55.43zM44.26 32.42l-9.412-21.96-9.413 21.96H44.26z"/>
    </g>
</svg>
